X: 3
T: John Brennan's
R: reel
M: 4/4
L: 1/8
K: Dmaj
dB[|:AF~F2 BFAF|DEFA BABd|eB~B2 egfe|dfed BcdB|!AF~F2 BFAF|DEFA BABd|egfg efdB|1AFGE D2dB:|2AFGE D2FA|]!~d3e fefg|afbf afdf|eB~B2 gB~B2|fedf edBd|!AF~F2 ABdf|afbf afdf|g2fg efdB|1AFGE D2FA:|2AFGE D2dB|]!


Tune 404	Setting 404

